content/pages/careers/perky-cachaca-anual.svg

<svg height="123" viewBox="0 0 94 123" width="94" xmlns="http://www.w3.org/2000/svg"><g fill="none" fill-rule="evenodd" transform="translate(-1 1)"><g stroke="#11100d" stroke-linecap="round" stroke-linejoin="round"><path d="m85.4205061 42.7466299c-5.0047879-43.60381611-35.0363637-42.44505749-35.0363637-42.44505749s-30.0315757-1.15875862-35.0363636 42.44505749c0 0-3.8497273 41.673977 35.0363636 41.673977s35.0363637-41.673977 35.0363637-41.673977z" stroke-width="2.593545"/><path d="m38.0207212 82.7417609.887303 29.5405061" stroke-width="2.593545"/><path d="m63.2699758 82.7417609.8858787 29.5405061 6.768 1.681839" stroke-width="2.593545"/><path d="m49.3864606 1.32834943s-4.2043636 24.31825287-30.8291515 26.47186207" stroke-width="2.596394"/><path d="m46.5936636 10.6874989s10.4496667 9.8287816 31.2564243 9.7860229" stroke-width="2.596394"/><path d="m23.5860242 15.8840966s-15.48578784-10.93765522-20.86372723 13.3977011" stroke-width="2.596394"/><path d="m8.66309697 25.4010253-.95139394 6.3154483" stroke-width="2.596394"/><path d="m13.1541606 25.4010253v6.8869885" stroke-width="2.596394"/></g><path d="m64.000897 42.0911402c-2.4781818 0-3.6204243-1.3354942-3.6204243-1.3354942s1.5239394-1.4295632 3.6204243-1.4295632c2.0964848 0 3.431 1.4295632 3.431 1.4295632s-.9528182 1.3354942-3.431 1.3354942zm-7.572697-6.8542069c-.6722424 0-1.1792727.6014713-1.0824242 1.2685058.6138484 4.2473563 4.265606 7.5098391 8.6807575 7.5098391 4.4137273 0 8.0654849-3.2624828 8.6793334-7.5098391.0968485-.6670345-.4101819-1.2685058-1.0824243-1.2685058z" fill="#11100d"/><path d="m56.3525727 32.7731816c-.7007272 0-1.2704242-.5686896-1.2704242-1.2713563 0-.5373333-.4358182-.9734713-.9727576-.9734713s-.9727576.436138-.9727576.9734713c0 .7026667-.5682727 1.2713563-1.2704242 1.2713563-.7007273 0-1.269-.5686896-1.269-1.2713563 0-1.9383908 1.5752121-3.5147586 3.5121818-3.5147586s3.5136061 1.5763678 3.5136061 3.5147586c0 .7026667-.569697 1.2713563-1.2704243 1.2713563" fill="#11100d"/><path d="m74.6733152 32.7731816c-.7007273 0-1.2704243-.5686896-1.2704243-1.2713563 0-.5373333-.4358182-.9734713-.9727576-.9734713-.5355151 0-.9727575.436138-.9727575.9734713 0 .7026667-.5682728 1.2713563-1.2704243 1.2713563-.7007273 0-1.269-.5686896-1.269-1.2713563 0-1.9383908 1.5752121-3.5147586 3.5121818-3.5147586s3.5136061 1.5763678 3.5136061 3.5147586c0 .7026667-.569697 1.2713563-1.2704242 1.2713563" fill="#11100d"/><path d="m77.7166364 72.3958851h13.6470909c2.491-8.0058391 2.491-16.5803679 0-24.5862069h-5.8379697" stroke="#11100d" stroke-linecap="round" stroke-linejoin="round" stroke-width="2.297303"/><path d="m24.5372758 42.3596644v51.9061149h-8.46" stroke="#11100d" stroke-linecap="round" stroke-linejoin="round" stroke-width="2.593545"/><path d="m18.1254788 89.807623 6.4119394 4.4582988" stroke="#11100d" stroke-linecap="round" stroke-linejoin="round" stroke-width="2.593545"/><path d="m85.4744848 72.9359264v21.3308506h-8.46" stroke="#11100d" stroke-linecap="round" stroke-linejoin="round" stroke-width="2.593545"/><path d="m79.0629727 89.807623 6.4119394 4.4582988" stroke="#11100d" stroke-linecap="round" stroke-linejoin="round" stroke-width="2.593545"/><path d="m9.64781818 47.8089655c-3.19884848 7.8832644-3.19884848 16.7043678 0 24.5862069h30.30930302c2.4924243-8.0044138 2.4924243-16.5803678 0-24.5862069z" fill="#f7f7f7"/><path d="m9.64781818 47.8089655c-3.19884848 7.8832644-3.19884848 16.7043678 0 24.5862069h30.30930302c2.4924243-8.0044138 2.4924243-16.5803678 0-24.5862069z" stroke="#11100d" stroke-linecap="round" stroke-linejoin="round" stroke-width="2.297303"/><path d="m38.9073121 112.621913 12.1245758 7.445701 3.7799394-4.277288-15.9045152-4.845977z" fill="#f7f7f7"/><path d="m38.9073121 112.621913 12.1245758 7.445701 3.7799394-4.277288-15.9045152-4.845977z" stroke="#11100d" stroke-linecap="round" stroke-linejoin="round" stroke-width="2.297303"/><path d="m63.9685667 112.763871 12.5233636 7.633839 3.7799394-4.277287-16.3474545-4.844552z" fill="#f7f7f7"/><path d="m63.9685667 112.763871 12.5233636 7.633839 3.7799394-4.277287-16.3474545-4.844552z" stroke="#11100d" stroke-linecap="round" stroke-linejoin="round" stroke-width="2.297303"/><g transform="translate(47 32.754529)"><path d="m.76894849 2.52673103s12.61166671-4.90156321 31.29345451 0" fill="#f7f7f7"/><path d="m.76894849 2.52673103s12.61166671-4.90156321 31.29345451 0" opacity=".1" stroke="#11100d" stroke-linecap="round" stroke-linejoin="round" stroke-width="2.297303"/></g></g></svg>

<?xml version="1.0" encoding="UTF-8"?>
<svg width="94px" height="123px" viewBox="0 0 94 123" version="1.1" xmlns="http://www.w3.org/2000/svg" xmlns:xlink="http://www.w3.org/1999/xlink">
    <!-- Generator: Sketch 52.5 (67469) - http://www.bohemiancoding.com/sketch -->
    <title>perky-cachaca-anual</title>
    <desc>Created with Sketch.</desc>
    <defs>
        <polygon id="path-1" points="1.42424242 0.712643678 2.13636364 0.712643678 2.13636364 1.42528736 1.42424242 1.42528736"></polygon>
        <polygon id="path-3" points="1.42424242 0.712643678 2.13636364 0.712643678 2.13636364 1.42528736 1.42424242 1.42528736"></polygon>
        <polygon id="path-5" points="1.42424242 0.712643678 2.13636364 0.712643678 2.13636364 1.42528736 1.42424242 1.42528736"></polygon>
        <polygon id="path-7" points="1.42424242 0.712643678 2.13636364 0.712643678 2.13636364 1.42528736 1.42424242 1.42528736"></polygon>
        <polygon id="path-9" points="1.42424242 0.712643678 2.13636364 0.712643678 2.13636364 1.42528736 1.42424242 1.42528736"></polygon>
        <polygon id="path-11" points="1.42424242 0.712643678 2.13636364 0.712643678 2.13636364 1.42528736 1.42424242 1.42528736"></polygon>
        <polygon id="path-13" points="1.42424242 0.712643678 2.13636364 0.712643678 2.13636364 1.42528736 1.42424242 1.42528736"></polygon>
        <polygon id="path-15" points="1.42424242 0.712643678 2.13636364 0.712643678 2.13636364 1.42528736 1.42424242 1.42528736"></polygon>
    </defs>
    <g id="✔--Careers" stroke="none" stroke-width="1" fill="none" fill-rule="evenodd">
        <g id="Careers__vertical" transform="translate(-1067.000000, -4238.000000)">
            <g id="perks" transform="translate(80.000000, 3930.000000)">
                <g id="allowance" transform="translate(986.000000, 309.000000)">
                    <g id="perky-cachaca-anual">
                        <path d="M85.4205061,42.7466299 C80.4157182,-0.857186207 50.3841424,0.301572414 50.3841424,0.301572414 C50.3841424,0.301572414 20.3525667,-0.857186207 15.3477788,42.7466299 C15.3477788,42.7466299 11.4980515,84.4206069 50.3841424,84.4206069 C89.2702333,84.4206069 85.4205061,42.7466299 85.4205061,42.7466299 Z" id="Stroke-1" stroke="#11100D" stroke-width="2.59354545" stroke-linecap="round" stroke-linejoin="round"></path>
                        <path d="M38.0207212,82.7417609 L38.9080242,112.282267" id="Stroke-3" stroke="#11100D" stroke-width="2.59354545" stroke-linecap="round" stroke-linejoin="round"></path>
                        <polyline id="Stroke-5" stroke="#11100D" stroke-width="2.59354545" stroke-linecap="round" stroke-linejoin="round" points="63.2699758 82.7417609 64.1558545 112.282267 70.9238545 113.964106"></polyline>
                        <g id="Group-9" transform="translate(0.000000, 120.122345)">
                            <mask id="mask-2" fill="white">
                                <use xlink:href="#path-1"></use>
                            </mask>
                            <g id="Clip-8"></g>
                            <path d="" id="Fill-7" fill="#11100D" mask="url(#mask-2)"></path>
                        </g>
                        <g id="Group-12" transform="translate(0.000000, 120.122345)">
                            <mask id="mask-4" fill="white">
                                <use xlink:href="#path-3"></use>
                            </mask>
                            <g id="Clip-11"></g>
                            <path d="" id="Fill-10" fill="#11100D" mask="url(#mask-4)"></path>
                        </g>
                        <g id="Group-15" transform="translate(0.000000, 120.122345)">
                            <mask id="mask-6" fill="white">
                                <use xlink:href="#path-5"></use>
                            </mask>
                            <g id="Clip-14"></g>
                            <path d="" id="Fill-13" fill="#11100D" mask="url(#mask-6)"></path>
                        </g>
                        <g id="Group-18" transform="translate(0.000000, 120.122345)">
                            <mask id="mask-8" fill="white">
                                <use xlink:href="#path-7"></use>
                            </mask>
                            <g id="Clip-17"></g>
                            <path d="" id="Fill-16" fill="#11100D" mask="url(#mask-8)"></path>
                        </g>
                        <g id="Group-21" transform="translate(0.000000, 120.122345)">
                            <mask id="mask-10" fill="white">
                                <use xlink:href="#path-9"></use>
                            </mask>
                            <g id="Clip-20"></g>
                            <path d="" id="Fill-19" fill="#11100D" mask="url(#mask-10)"></path>
                        </g>
                        <g id="Group-24" transform="translate(0.000000, 120.122345)">
                            <mask id="mask-12" fill="white">
                                <use xlink:href="#path-11"></use>
                            </mask>
                            <g id="Clip-23"></g>
                            <path d="" id="Fill-22" fill="#11100D" mask="url(#mask-12)"></path>
                        </g>
                        <g id="Group-27" transform="translate(0.000000, 120.122345)">
                            <mask id="mask-14" fill="white">
                                <use xlink:href="#path-13"></use>
                            </mask>
                            <g id="Clip-26"></g>
                            <path d="" id="Fill-25" fill="#11100D" mask="url(#mask-14)"></path>
                        </g>
                        <g id="Group-30" transform="translate(0.000000, 120.122345)">
                            <mask id="mask-16" fill="white">
                                <use xlink:href="#path-15"></use>
                            </mask>
                            <g id="Clip-29"></g>
                            <path d="" id="Fill-28" fill="#11100D" mask="url(#mask-16)"></path>
                        </g>
                        <path d="M49.3864606,1.32834943 C49.3864606,1.32834943 45.182097,25.6466023 18.5573091,27.8002115" id="Stroke-31" stroke="#11100D" stroke-width="2.59639394" stroke-linecap="round" stroke-linejoin="round"></path>
                        <path d="M46.5936636,10.6874989 C46.5936636,10.6874989 57.0433303,20.5162805 77.8500879,20.4735218" id="Stroke-33" stroke="#11100D" stroke-width="2.59639394" stroke-linecap="round" stroke-linejoin="round"></path>
                        <path d="M23.5860242,15.8840966 C23.5860242,15.8840966 8.10023636,4.94644138 2.72229697,29.2817977" id="Stroke-35" stroke="#11100D" stroke-width="2.59639394" stroke-linecap="round" stroke-linejoin="round"></path>
                        <path d="M8.66309697,25.4010253 L7.71170303,31.7164736" id="Stroke-37" stroke="#11100D" stroke-width="2.59639394" stroke-linecap="round" stroke-linejoin="round"></path>
                        <path d="M13.1541606,25.4010253 L13.1541606,32.2880138" id="Stroke-39" stroke="#11100D" stroke-width="2.59639394" stroke-linecap="round" stroke-linejoin="round"></path>
                        <path d="M64.000897,42.0911402 C61.5227152,42.0911402 60.3804727,40.755646 60.3804727,40.755646 C60.3804727,40.755646 61.9044121,39.3260828 64.000897,39.3260828 C66.0973818,39.3260828 67.431897,40.755646 67.431897,40.755646 C67.431897,40.755646 66.4790788,42.0911402 64.000897,42.0911402 Z M56.4282,35.2369333 C55.7559576,35.2369333 55.2489273,35.8384046 55.3457758,36.5054391 C55.9596242,40.7527954 59.6113818,44.0152782 64.0265333,44.0152782 C68.4402606,44.0152782 72.0920182,40.7527954 72.7058667,36.5054391 C72.8027152,35.8384046 72.2956848,35.2369333 71.6234424,35.2369333 L56.4282,35.2369333 Z" id="Fill-41" fill="#11100D"></path>
                        <path d="M56.3525727,32.7731816 C55.6518455,32.7731816 55.0821485,32.204492 55.0821485,31.5018253 C55.0821485,30.964492 54.6463303,30.528354 54.1093909,30.528354 C53.5724515,30.528354 53.1366333,30.964492 53.1366333,31.5018253 C53.1366333,32.204492 52.5683606,32.7731816 51.8662091,32.7731816 C51.1654818,32.7731816 50.5972091,32.204492 50.5972091,31.5018253 C50.5972091,29.5634345 52.1724212,27.9870667 54.1093909,27.9870667 C56.0463606,27.9870667 57.622997,29.5634345 57.622997,31.5018253 C57.622997,32.204492 57.0533,32.7731816 56.3525727,32.7731816" id="Fill-43" fill="#11100D"></path>
                        <path d="M74.6733152,32.7731816 C73.9725879,32.7731816 73.4028909,32.204492 73.4028909,31.5018253 C73.4028909,30.964492 72.9670727,30.528354 72.4301333,30.528354 C71.8946182,30.528354 71.4573758,30.964492 71.4573758,31.5018253 C71.4573758,32.204492 70.889103,32.7731816 70.1869515,32.7731816 C69.4862242,32.7731816 68.9179515,32.204492 68.9179515,31.5018253 C68.9179515,29.5634345 70.4931636,27.9870667 72.4301333,27.9870667 C74.367103,27.9870667 75.9437394,29.5634345 75.9437394,31.5018253 C75.9437394,32.204492 75.3740424,32.7731816 74.6733152,32.7731816" id="Fill-45" fill="#11100D"></path>
                        <path d="M77.7166364,72.3958851 L91.3637273,72.3958851 C93.8547273,64.390046 93.8547273,55.8155172 91.3637273,47.8096782 L85.5257576,47.8096782" id="Stroke-47" stroke="#11100D" stroke-width="2.29730303" stroke-linecap="round" stroke-linejoin="round"></path>
                        <polyline id="Stroke-49" stroke="#11100D" stroke-width="2.59354545" stroke-linecap="round" stroke-linejoin="round" points="24.5372758 42.3596644 24.5372758 94.2657793 16.0772758 94.2657793"></polyline>
                        <path d="M18.1254788,89.807623 L24.5374182,94.2659218" id="Stroke-51" stroke="#11100D" stroke-width="2.59354545" stroke-linecap="round" stroke-linejoin="round"></path>
                        <polyline id="Stroke-53" stroke="#11100D" stroke-width="2.59354545" stroke-linecap="round" stroke-linejoin="round" points="85.4744848 72.9359264 85.4744848 94.266777 77.0144848 94.266777"></polyline>
                        <path d="M79.0629727,89.807623 L85.4749121,94.2659218" id="Stroke-55" stroke="#11100D" stroke-width="2.59354545" stroke-linecap="round" stroke-linejoin="round"></path>
                        <path d="M9.64781818,47.8089655 C6.4489697,55.6922299 6.4489697,64.5133333 9.64781818,72.3951724 L39.9571212,72.3951724 C42.4495455,64.3907586 42.4495455,55.8148046 39.9571212,47.8089655 L9.64781818,47.8089655 Z" id="Fill-57" fill="#F7F7F7"></path>
                        <path d="M9.64781818,47.8089655 C6.4489697,55.6922299 6.4489697,64.5133333 9.64781818,72.3951724 L39.9571212,72.3951724 C42.4495455,64.3907586 42.4495455,55.8148046 39.9571212,47.8089655 L9.64781818,47.8089655 Z" id="Stroke-59" stroke="#11100D" stroke-width="2.29730303" stroke-linecap="round" stroke-linejoin="round"></path>
                        <polygon id="Fill-61" fill="#F7F7F7" points="38.9073121 112.621913 51.0318879 120.067614 54.8118273 115.790326 38.9073121 110.944349"></polygon>
                        <polygon id="Stroke-63" stroke="#11100D" stroke-width="2.29730303" stroke-linecap="round" stroke-linejoin="round" points="38.9073121 112.621913 51.0318879 120.067614 54.8118273 115.790326 38.9073121 110.944349"></polygon>
                        <polygon id="Fill-65" fill="#F7F7F7" points="63.9685667 112.763871 76.4919303 120.39771 80.2718697 116.120423 63.9244152 111.275871"></polygon>
                        <polygon id="Stroke-67" stroke="#11100D" stroke-width="2.29730303" stroke-linecap="round" stroke-linejoin="round" points="63.9685667 112.763871 76.4919303 120.39771 80.2718697 116.120423 63.9244152 111.275871"></polygon>
                        <g id="Group-72" transform="translate(47.000000, 32.754529)">
                            <path d="M0.768948485,2.52673103 C0.768948485,2.52673103 13.3806152,-2.37483218 32.062403,2.52673103" id="Fill-69" fill="#F7F7F7"></path>
                            <path d="M0.768948485,2.52673103 C0.768948485,2.52673103 13.3806152,-2.37483218 32.062403,2.52673103" id="Stroke-71" stroke="#11100D" stroke-width="2.29730303" opacity="0.100000001" stroke-linecap="round" stroke-linejoin="round"></path>
                        </g>
                    </g>
                </g>
            </g>
        </g>
    </g>
</svg>
